X: 1
T: Sailor Hector
C: John Turner 2006
R: hornpipe
N: In tribute to "Sailor" Hector McNeill, founder of Red Springs, NC
Z: 2006 John Chambers <jc:trillian.mit.edu>
M: 4/4
L: 1/8
K: D
|: ((3ABc) \
| "D"d2AG FG Ad | "G"B2G2 G3B | "A"ABcd eaga | "D"fdcd "A"e2 ((3ABc) | "D"d2AG FG Ad |
| "G"B2G2 G3B | "A"ABcd efge | "D"f2d2 d2 || f2 | "Bm"babf "Em"gfeg | "A"agae "D"f2df | "G"gBeg "D"fadf |
| "E"((3efe) ((3dcB) "A"A2 ((3ABc) | "D"d2AG FG Ad | "G"B2G2 G3B | "A"ABcd efge | "D"f2d2 d2 :| y8 y8 y8 y8
